assets/icons/utility/record_create.svg

<?xml version="1.0"?><svg xmlns="http://www.w3.org/2000/svg" width="52" height="52" viewBox="0 0 52 52"><path fill="#fff" d="m40.8 7.7"></path><g fill="#fff"><path d="m17.2 11.6h17.6c0.9 0 1.6-0.7 1.6-1.6v-3.2c0-2.6-2.2-4.8-4.8-4.8h-11.2c-2.6 0-4.8 2.2-4.8 4.8v3.2c0 0.9 0.7 1.6 1.6 1.6z m26.4-5.6h-1.6c-0.5 0-0.8 0.3-0.8 0.8v3.2c0 3.5-2.9 6.4-6.4 6.4h-17.6c-3.5 0-6.4-2.9-6.4-6.4v-3.2c0-0.5-0.3-0.8-0.8-0.8h-1.6c-2.6 0-4.8 2.2-4.8 4.8v34.4c0 2.6 2.2 4.8 4.8 4.8h35.2c2.6 0 4.8-2.2 4.8-4.8v-34.4c0-2.6-2.2-4.8-4.8-4.8z m-5.9 28.2c0 0.4-0.4 0.8-0.8 0.8h-8.8c-0.3 0-0.5 0.2-0.5 0.5v8.8c0 0.4-0.4 0.8-0.8 0.8h-1.6c-0.4 0-0.8-0.4-0.8-0.8v-8.8c0-0.3-0.2-0.5-0.5-0.5h-8.8c-0.4 0-0.8-0.4-0.8-0.8v-1.6c0-0.4 0.4-0.8 0.8-0.8h8.8c0.3 0 0.5-0.2 0.5-0.5v-8.8c0-0.4 0.4-0.8 0.8-0.8h1.6c0.4 0 0.8 0.4 0.8 0.8v8.8c0 0.3 0.2 0.5 0.5 0.5h8.8c0.4 0 0.8 0.4 0.8 0.8v1.6z"></path></g></svg>

<svg xmlns="http://www.w3.org/2000/svg" x="0px" y="0px"
	 width="52px" height="52px" viewBox="0 0 52 52" enable-background="new 0 0 52 52" xml:space="preserve">
<path fill="#FFFFFF" d="M40.8,7.7C40.8,7.7,40.8,7.7,40.8,7.7"/>
<g>
	<path fill="#FFFFFF" d="M17.2,11.6h17.6c0.9,0,1.6-0.7,1.6-1.6V6.8c0-2.6-2.2-4.8-4.8-4.8H20.4c-2.6,0-4.8,2.2-4.8,4.8V10
		C15.6,10.9,16.3,11.6,17.2,11.6z"/>
	<path fill="#FFFFFF" d="M43.6,6H42c-0.5,0-0.8,0.3-0.8,0.8V10c0,3.5-2.9,6.4-6.4,6.4H17.2c-3.5,0-6.4-2.9-6.4-6.4V6.8
		C10.8,6.3,10.5,6,10,6H8.4c-2.6,0-4.8,2.2-4.8,4.8v34.4c0,2.6,2.2,4.8,4.8,4.8h35.2c2.6,0,4.8-2.2,4.8-4.8V10.8
		C48.4,8.2,46.2,6,43.6,6z M37.7,34.2c0,0.4-0.4,0.8-0.8,0.8h-8.8c-0.3,0-0.5,0.2-0.5,0.5v8.8c0,0.4-0.4,0.8-0.8,0.8h-1.6
		c-0.4,0-0.8-0.4-0.8-0.8v-8.8c0-0.3-0.2-0.5-0.5-0.5h-8.8c-0.4,0-0.8-0.4-0.8-0.8v-1.6c0-0.4,0.4-0.8,0.8-0.8h8.8
		c0.3,0,0.5-0.2,0.5-0.5v-8.8c0-0.4,0.4-0.8,0.8-0.8h1.6c0.4,0,0.8,0.4,0.8,0.8v8.8c0,0.3,0.2,0.5,0.5,0.5h8.8
		c0.4,0,0.8,0.4,0.8,0.8V34.2z"/>
</g>
</svg>
